images/LOGOS_CLIENTES/EQUIFAX.svg

<svg width="109" height="22" viewBox="0 0 109 22" fill="none" xmlns="http://www.w3.org/2000/svg">
<path fill-rule="evenodd" clip-rule="evenodd" d="M17.1351 3.24031L17.825 0H3.50615L1.6083 8.9123L-0.00195312 16.0892H14.7197L15.4672 12.6748H7.30184L8.04933 9.20163H14.9497L15.6972 5.96074H8.79624L9.37142 3.24031H17.1351Z" fill="black"/>
<path fill-rule="evenodd" clip-rule="evenodd" d="M29.1522 9.20161H34.1553C34.3323 8.15546 34.6612 6.59469 34.7304 5.32383C34.8102 3.83641 34.2269 2.74137 32.9479 2.02473C31.1152 1.00245 28.4152 1.05718 26.3922 0.983243C23.6187 0.881947 20.3185 1.24172 18.5714 3.7031C17.6702 4.97279 17.1632 6.93991 16.9641 8.47798C16.7178 10.3549 15.7765 13.5044 17.4787 15.0459C18.7443 16.1945 21.5759 16.5764 23.2223 16.5537C24.8989 16.5298 26.5266 16.4198 28.1747 16.0886L32.4874 21.3542H39.2154L29.1522 9.20161ZM28.4047 9.31746C27.8546 11.8126 27.1053 13.9119 24.2067 13.8892C21.2965 13.8676 22.2623 10.7368 22.5394 8.91285C22.9312 6.32107 23.9267 3.60297 26.9097 3.81953C29.9294 4.03959 28.8634 7.24263 28.4047 9.31746Z" fill="black"/>
<path fill-rule="evenodd" clip-rule="evenodd" d="M56.0076 1.7937L54.455 8.91236L52.9023 16.0892H58.7676L61.9305 1.7937H56.0076Z" fill="black"/>
<path fill-rule="evenodd" clip-rule="evenodd" d="M76.3076 4.62941L76.9974 1.7937H64.1736L61.0684 16.0892H66.9918L68.3139 9.95385H74.1221L74.3521 8.91236L74.6973 7.29163H68.9467L69.5219 4.62941H76.3076Z" fill="black"/>
<path fill-rule="evenodd" clip-rule="evenodd" d="M37.1459 1.7937H43.1264L40.8839 11.9221C40.6097 13.1604 41.7647 13.806 42.755 13.8916C44.0287 14.0028 45.1715 13.2023 45.4841 11.8645L47.8419 1.79428H53.7648L51.407 12.5014C50.3976 15.2928 48.059 16.3891 45.4772 16.6627C43.8762 16.8332 42.1815 16.6889 40.6534 16.4362L35.3633 10.0697L37.1459 1.7937Z" fill="black"/>
<path fill-rule="evenodd" clip-rule="evenodd" d="M89.5909 1.7937H97.124L99.4241 5.49799L103.162 1.7937H108.912L101.38 8.44896L106.325 16.0892H98.9642L96.5489 11.7481L92.4091 16.0892H83.6109L83.2657 12.9636H77.1699L75.0427 16.0892H70.9023L80.9079 1.7937H88.0959L89.4762 13.3682L94.2487 8.97L89.5909 1.7937ZM79.1254 9.89621L82.3453 5.03459L82.9205 9.89621H79.1254Z" fill="black"/>
</svg>

<svg width="109" height="22" fill="none" xmlns="http://www.w3.org/2000/svg"><path fill-rule="evenodd" clip-rule="evenodd" d="m17.135 3.24.69-3.24H3.506L1.608 8.912l-1.61 7.177H14.72l.747-3.414H7.302l.747-3.473h6.9l.748-3.241h-6.9l.574-2.72h7.764ZM29.152 9.202h5.003c.177-1.047.506-2.607.575-3.878.08-1.488-.503-2.583-1.782-3.3-1.833-1.022-4.533-.967-6.556-1.04-2.773-.102-6.073.258-7.82 2.72-.902 1.269-1.409 3.236-1.608 4.774-.246 1.877-1.187 5.026.515 6.568 1.265 1.149 4.097 1.53 5.743 1.508 1.677-.024 3.305-.134 4.953-.465l4.312 5.265h6.728L29.152 9.202Zm-.747.115c-.55 2.496-1.3 4.595-4.198 4.572-2.91-.021-1.945-3.152-1.668-4.976.392-2.592 1.388-5.31 4.37-5.093 3.02.22 1.954 3.423 1.496 5.497ZM56.008 1.794l-1.553 7.118-1.553 7.177h5.866L61.93 1.794h-5.923ZM76.308 4.63l.69-2.836H64.173l-3.106 14.295h5.924l1.322-6.135h5.808l.23-1.042.345-1.62h-5.75l.575-2.663h6.786Z" fill="#000"/><path fill-rule="evenodd" clip-rule="evenodd" d="M37.146 1.794h5.98l-2.242 10.128c-.274 1.238.88 1.884 1.871 1.97 1.274.11 2.416-.69 2.73-2.027l2.357-10.07h5.923L51.407 12.5c-1.01 2.792-3.348 3.888-5.93 4.162-1.6.17-3.295.026-4.824-.227l-5.29-6.366 1.783-8.276ZM89.59 1.794h7.534l2.3 3.704 3.738-3.704h5.75l-7.532 6.655 4.945 7.64h-7.36l-2.416-4.34-4.14 4.34h-8.798l-.345-3.125H77.17l-2.127 3.125h-4.14L80.907 1.794h7.188l1.38 11.574L94.25 8.97 89.59 1.794ZM79.126 9.896l3.22-4.861.576 4.861h-3.796Z" fill="#000"/></svg>
